svgs/regular/square-poll-horizontal.svg

<svg xmlns="http://www.w3.org/2000/svg" viewBox="0 0 448 512"><!--! Font Awesome Pro 6.4.2 by @fontawesome - https://fontawesome.com License - https://fontawesome.com/license (Commercial License) Copyright 2023 Fonticons, Inc. --><path d="M400 96c0-8.8-7.2-16-16-16L64 80c-8.8 0-16 7.2-16 16l0 320c0 8.8 7.2 16 16 16l320 0c8.8 0 16-7.2 16-16l0-320zM384 32c35.3 0 64 28.7 64 64l0 320c0 35.3-28.7 64-64 64L64 480c-35.3 0-64-28.7-64-64L0 96C0 60.7 28.7 32 64 32l320 0zM256 160c0 13.3-10.7 24-24 24l-112 0c-13.3 0-24-10.7-24-24s10.7-24 24-24l112 0c13.3 0 24 10.7 24 24zm72 72c13.3 0 24 10.7 24 24s-10.7 24-24 24l-208 0c-13.3 0-24-10.7-24-24s10.7-24 24-24l208 0zM192 352c0 13.3-10.7 24-24 24l-48 0c-13.3 0-24-10.7-24-24s10.7-24 24-24l48 0c13.3 0 24 10.7 24 24z"/></svg>

<svg xmlns="http://www.w3.org/2000/svg" viewBox="0 0 448 512"><!--! Font Awesome Pro 6.1.1 by @fontawesome - https://fontawesome.com License - https://fontawesome.com/license (Commercial License) Copyright 2022 Fonticons, Inc. --><path d="M232 184H120C106.7 184 96 173.3 96 160C96 146.7 106.7 136 120 136H232C245.3 136 256 146.7 256 160C256 173.3 245.3 184 232 184zM328 232C341.3 232 352 242.7 352 256C352 269.3 341.3 280 328 280H120C106.7 280 96 269.3 96 256C96 242.7 106.7 232 120 232H328zM168 376H120C106.7 376 96 365.3 96 352C96 338.7 106.7 328 120 328H168C181.3 328 192 338.7 192 352C192 365.3 181.3 376 168 376zM384 32C419.3 32 448 60.65 448 96V416C448 451.3 419.3 480 384 480H64C28.65 480 0 451.3 0 416V96C0 60.65 28.65 32 64 32H384zM384 80H64C55.16 80 48 87.16 48 96V416C48 424.8 55.16 432 64 432H384C392.8 432 400 424.8 400 416V96C400 87.16 392.8 80 384 80z"/></svg>
